src/components/Footer/images/logo-12.svg

<svg xmlns="http://www.w3.org/2000/svg" width="470" height="262" fill="none"><path fill="#2C2C2C" fill-rule="evenodd" d="M404.813 150.892c7.009 0 10.255-3.073 10.255-8.284v-4.543c0-1.47-.389-2.138-1.428-3.074l-4.674-4.008 4.674-4.009c1.039-.935 1.428-1.603 1.428-3.073v-4.008c0-5.212-3.246-8.285-10.255-8.285h-44.39v39.284h44.39Zm2.983-6.681H367.69v-9.754h40.106v9.754Zm0-25.922H367.69v9.487h40.106v-9.487ZM327.19 150.892c7.141 0 10.387-3.073 10.387-8.284v-4.543c0-1.47-.39-2.138-1.428-3.074l-4.675-4.008 4.675-4.009c1.038-.935 1.428-1.603 1.428-3.073v-4.008c0-5.212-3.246-8.285-10.387-8.285h-44.259v39.284h44.259Zm3.119-6.681h-40.11v-9.754h40.11v9.754Zm0-25.922h-40.11v9.487h40.11v-9.487Z" clip-rule="evenodd"/><path fill="#2C2C2C" d="M250.868 111.608v32.336h-37.902v-32.336h-7.268v30.331c0 5.613 3.373 8.953 9.866 8.953h32.711c6.488 0 9.861-3.34 9.861-8.953v-30.331h-7.268ZM135.216 127.642v-16.034h-7.136v39.284h7.136V134.59h38.551v16.302h7.141v-39.284h-7.141v16.034h-38.551ZM107.052 118.556v-6.948H64.735c-6.49 0-9.735 3.341-9.735 8.952v21.379c0 5.613 3.245 8.953 9.735 8.953h42.317v-6.948H62.269v-25.388h44.783ZM432.054 115.884c-1.297 1.336-2.593 1.871-4.416 1.871-1.559 0-3.11-.535-4.152-1.871-1.297-1.069-1.814-2.673-1.814-4.276 0-1.871.517-3.208 1.814-4.544 1.042-1.069 2.593-1.87 4.152-1.87 1.823 0 3.119.801 4.416 1.87 1.034 1.336 1.814 2.673 1.814 4.544 0 1.603-.78 3.207-1.814 4.276Zm-8.052-8.018c-1.033.802-1.55 2.138-1.55 3.742 0 1.335.517 2.672 1.55 3.741 1.043 1.069 2.34 1.604 3.636 1.604 1.56 0 2.857-.535 3.899-1.604 1.034-1.069 1.297-2.406 1.297-3.741 0-1.604-.263-2.94-1.297-3.742-1.042-1.069-2.339-1.604-3.899-1.604-1.296 0-2.593.535-3.636 1.604Zm3.636.267c.78 0 1.297 0 1.823.267.779.268 1.034.802 1.034 1.603 0 .802-.255 1.069-.78 1.337-.254.267-.517.267-.78.534.526 0 .78.268 1.043.535.263.267.263.802.263 1.069v.535c0 .267.254.267.254.534v.534h-1.034v-.266l-.263-.268v-.534c0-.802 0-1.337-.517-1.604-.263 0-.78-.267-1.297-.267h-1.042v2.94h-1.034v-6.949h2.33Zm1.297 1.069c-.254-.267-.78-.267-1.551-.267h-1.042v2.406h2.339c.517-.268.517-.535.517-1.069 0-.535 0-.802-.263-1.07Z"/></svg>

<svg width="470" height="262" viewBox="0 0 470 262" fill="none" xmlns="http://www.w3.org/2000/svg">
<path fill-rule="evenodd" clip-rule="evenodd" d="M404.813 150.892C411.822 150.892 415.068 147.819 415.068 142.608V138.065C415.068 136.595 414.679 135.927 413.64 134.991L408.966 130.983C413.64 126.974 413.64 126.974 413.64 126.974C414.679 126.039 415.068 125.371 415.068 123.901V119.893C415.068 114.681 411.822 111.608 404.813 111.608H360.423V150.892H404.813ZM407.796 144.211H367.69V134.457H407.796V144.211ZM407.796 118.289H367.69V127.776H407.796V118.289Z" fill="white"/>
<path fill-rule="evenodd" clip-rule="evenodd" d="M327.19 150.892C334.331 150.892 337.577 147.819 337.577 142.608V138.065C337.577 136.595 337.187 135.927 336.149 134.991L331.474 130.983C336.149 126.974 336.149 126.974 336.149 126.974C337.187 126.039 337.577 125.371 337.577 123.901V119.893C337.577 114.681 334.331 111.608 327.19 111.608H282.931V150.892H327.19ZM330.309 144.211H290.199V134.457H330.309V144.211ZM330.309 118.289H290.199V127.776H330.309V118.289Z" fill="white"/>
<path d="M250.868 111.608C250.868 143.944 250.868 143.944 250.868 143.944C212.966 143.944 212.966 143.944 212.966 143.944C212.966 111.608 212.966 111.608 212.966 111.608C205.698 111.608 205.698 111.608 205.698 111.608C205.698 141.939 205.698 141.939 205.698 141.939C205.698 147.552 209.071 150.892 215.564 150.892C248.275 150.892 248.275 150.892 248.275 150.892C254.763 150.892 258.136 147.552 258.136 141.939C258.136 111.608 258.136 111.608 258.136 111.608H250.868Z" fill="white"/>
<path d="M135.216 127.642C135.216 111.608 135.216 111.608 135.216 111.608C128.08 111.608 128.08 111.608 128.08 111.608C128.08 150.892 128.08 150.892 128.08 150.892C135.216 150.892 135.216 150.892 135.216 150.892C135.216 134.59 135.216 134.59 135.216 134.59C173.767 134.59 173.767 134.59 173.767 134.59C173.767 150.892 173.767 150.892 173.767 150.892C180.908 150.892 180.908 150.892 180.908 150.892C180.908 111.608 180.908 111.608 180.908 111.608C173.767 111.608 173.767 111.608 173.767 111.608C173.767 127.642 173.767 127.642 173.767 127.642H135.216Z" fill="white"/>
<path d="M107.052 118.556C107.052 111.608 107.052 111.608 107.052 111.608C64.7351 111.608 64.7351 111.608 64.7351 111.608C58.245 111.608 55 114.949 55 120.56C55 141.939 55 141.939 55 141.939C55 147.552 58.245 150.892 64.7351 150.892C107.052 150.892 107.052 150.892 107.052 150.892C107.052 143.944 107.052 143.944 107.052 143.944C62.2687 143.944 62.2687 143.944 62.2687 143.944C62.2687 118.556 62.2687 118.556 62.2687 118.556H107.052Z" fill="white"/>
<path d="M432.054 115.884C430.757 117.22 429.461 117.755 427.638 117.755C426.079 117.755 424.528 117.22 423.486 115.884C422.189 114.815 421.672 113.211 421.672 111.608C421.672 109.737 422.189 108.4 423.486 107.064C424.528 105.995 426.079 105.194 427.638 105.194C429.461 105.194 430.757 105.995 432.054 107.064C433.088 108.4 433.868 109.737 433.868 111.608C433.868 113.211 433.088 114.815 432.054 115.884ZM424.002 107.866C422.969 108.668 422.452 110.004 422.452 111.608C422.452 112.943 422.969 114.28 424.002 115.349C425.045 116.418 426.342 116.953 427.638 116.953C429.198 116.953 430.495 116.418 431.537 115.349C432.571 114.28 432.834 112.943 432.834 111.608C432.834 110.004 432.571 108.668 431.537 107.866C430.495 106.797 429.198 106.262 427.638 106.262C426.342 106.262 425.045 106.797 424.002 107.866ZM427.638 108.133C428.418 108.133 428.935 108.133 429.461 108.4C430.24 108.668 430.495 109.202 430.495 110.003C430.495 110.805 430.24 111.072 429.715 111.34C429.461 111.607 429.198 111.607 428.935 111.874C429.461 111.874 429.715 112.142 429.978 112.409C430.241 112.676 430.241 113.211 430.241 113.478C430.241 114.013 430.241 114.013 430.241 114.013C430.241 114.28 430.495 114.28 430.495 114.547C430.495 114.815 430.495 114.815 430.495 114.815C430.495 115.081 430.495 115.081 430.495 115.081C429.461 115.081 429.461 115.081 429.461 115.081C429.461 114.815 429.461 114.815 429.461 114.815C429.198 114.547 429.198 114.547 429.198 114.547C429.198 114.013 429.198 114.013 429.198 114.013C429.198 113.211 429.198 112.676 428.681 112.409C428.418 112.409 427.901 112.142 427.384 112.142C426.342 112.142 426.342 112.142 426.342 112.142C426.342 115.082 426.342 115.082 426.342 115.082C425.308 115.082 425.308 115.082 425.308 115.082C425.308 108.133 425.308 108.133 425.308 108.133H427.638ZM428.935 109.202C428.681 108.935 428.155 108.935 427.384 108.935C426.342 108.935 426.342 108.935 426.342 108.935C426.342 111.341 426.342 111.341 426.342 111.341C427.638 111.341 427.638 111.341 427.638 111.341C427.901 111.341 428.418 111.341 428.681 111.341C429.198 111.073 429.198 110.806 429.198 110.272C429.198 109.737 429.198 109.47 428.935 109.202Z" fill="white"/>
</svg>
